assets/applenews/mono.svg

<svg viewBox="0 0 24 24" xmlns="http://www.w3.org/2000/svg"><path d="m0 12.9401c2.726 4.6726 6.3944 8.385 11.039 11.0582h-9.6226c-.7824 0-1.4164-.6344-1.4164-1.4164zm0-11.5263c0-.7801.632-1.412 1.4116-1.412h4.8082l17.7802 17.7565v4.773c0 .3891-.1544.762-.4295 1.0373a1.4674 1.4674 0 0 1 -1.037.4296h-4.774l-17.7595-17.7566m12.9634-6.2399h9.6182a1.4187 1.4187 0 0 1 1.4184 1.4188v9.6256c-2.7352-4.5526-6.3843-8.2716-11.0366-11.0444z"/></svg>

<svg xmlns="http://www.w3.org/2000/svg" viewBox="0 0 24 24"><path d="M0 12.94c2.726 4.673 6.394 8.385 11.039 11.058H1.416A1.416 1.416 0 0 1 0 22.582zM0 1.414C0 .634.632.002 1.412.002H6.22L24 17.758v4.773c0 .39-.154.762-.43 1.038a1.47 1.47 0 0 1-1.037.43H17.76L0 6.241M12.963.002h9.619A1.42 1.42 0 0 1 24 1.42v9.626C21.265 6.494 17.616 2.775 12.963.002"/></svg>
